assets/images/svg/coupon-logo.svg

<svg width="22" height="22" viewBox="0 0 22 22" fill="none" xmlns="http://www.w3.org/2000/svg">
<path d="M12.1135 17.6614C12.1332 15.6421 11.6213 14.0001 10.9701 13.9937C10.3188 13.9873 9.7749 15.6191 9.75519 17.6384C9.73544 19.6577 10.2474 21.2998 10.8986 21.3061C11.5498 21.3125 12.0937 19.6807 12.1135 17.6614Z" fill="white"/>
<path d="M8.33636 17.2027C9.44477 15.5147 9.90197 13.8565 9.3576 13.4991C8.81319 13.1416 7.47335 14.2202 6.36499 15.9083C5.25658 17.5963 4.79938 19.2544 5.34375 19.6119C5.88816 19.9694 7.22796 18.8908 8.33636 17.2027Z" fill="white"/>
<path d="M5.40254 14.7807C7.24763 13.9601 8.52878 12.8124 8.26408 12.2173C7.99942 11.6222 6.28914 11.8052 4.44404 12.6259C2.59896 13.4466 1.3178 14.5943 1.58248 15.1894C1.84716 15.7844 3.55746 15.6015 5.40254 14.7807Z" fill="white"/>
<path d="M8.04299 10.5486C8.14208 9.90496 6.60441 9.13412 4.60857 8.82691C2.61268 8.51971 0.914392 8.7925 0.815322 9.43618C0.716251 10.0799 2.25391 10.8506 4.24979 11.1579C6.24563 11.4651 7.94395 11.1923 8.04299 10.5486Z" fill="white"/>
<path d="M8.75925 9.01522C9.19054 8.52726 8.31353 7.04759 6.80041 5.71029C5.2873 4.37301 3.71105 3.68452 3.27977 4.1725C2.84849 4.6605 3.7255 6.14017 5.23863 7.47747C6.75175 8.81476 8.328 9.50323 8.75925 9.01522Z" fill="white"/>
<path d="M10.1867 8.11924C10.8134 7.94192 10.8756 6.22297 10.3258 4.2799C9.77598 2.33682 8.82223 0.905395 8.19559 1.08272C7.56894 1.26004 7.50668 2.97897 8.0565 4.92206C8.60633 6.8651 9.56007 8.29656 10.1867 8.11924Z" fill="white"/>
<path d="M14.0621 4.98242C14.6502 3.05056 14.6218 1.33074 13.9988 1.14109C13.3758 0.951445 12.394 2.36378 11.8059 4.29564C11.2179 6.22749 11.2462 7.94732 11.8693 8.13696C12.4923 8.3266 13.4741 6.91429 14.0621 4.98242Z" fill="white"/>
<path d="M16.8302 7.59267C18.3692 6.28521 19.275 4.82296 18.8533 4.32665C18.4316 3.83033 16.8422 4.4879 15.3033 5.79531C13.7643 7.10277 12.8585 8.56502 13.2802 9.06134C13.7018 9.55766 15.2912 8.90013 16.8302 7.59267Z" fill="white"/>
<path d="M17.7458 11.287C19.7474 11.0192 21.2999 10.2789 21.2136 9.63336C21.1272 8.98788 19.4346 8.68169 17.4331 8.94943C15.4316 9.21721 13.879 9.95756 13.9653 10.6031C14.0517 11.2486 15.7443 11.5548 17.7458 11.287Z" fill="white"/>
<path d="M20.3277 15.3743C20.6041 14.7846 19.3458 13.6118 17.5173 12.7549C15.6888 11.898 13.9824 11.6813 13.706 12.271C13.4297 12.8608 14.6879 14.0335 16.5165 14.8904C18.345 15.7473 20.0514 15.964 20.3277 15.3743Z" fill="white"/>
<path d="M16.4819 19.7251C17.0333 19.3784 16.6088 17.7115 15.534 16.002C14.4591 14.2925 13.1408 13.1877 12.5894 13.5343C12.0381 13.8809 12.4625 15.5478 13.5374 17.2574C14.6123 18.9669 15.9306 20.0717 16.4819 19.7251Z" fill="white"/>
</svg>

<svg xmlns="http://www.w3.org/2000/svg" width="22" height="22" fill="none" viewBox="0 0 22 22"><path fill="#fff" d="M12.114 17.661c.02-2.019-.493-3.66-1.144-3.667s-1.195 1.625-1.215 3.644.492 3.662 1.144 3.668c.65.006 1.195-1.625 1.215-3.645M8.336 17.203c1.109-1.688 1.566-3.346 1.022-3.704-.545-.357-1.885.721-2.993 2.41-1.108 1.687-1.566 3.345-1.021 3.703.544.357 1.884-.721 2.992-2.41M5.403 14.78c1.845-.82 3.126-1.968 2.861-2.563s-1.975-.412-3.82.409c-1.845.82-3.126 1.968-2.862 2.563.265.595 1.975.412 3.82-.408M8.043 10.549c.1-.644-1.439-1.415-3.434-1.722s-3.695-.034-3.794.61c-.099.643 1.439 1.414 3.435 1.72 1.996.308 3.694.035 3.793-.608M8.76 9.015c.43-.488-.446-1.967-1.96-3.305-1.513-1.337-3.089-2.025-3.52-1.537-.432.487.446 1.967 1.959 3.304 1.513 1.338 3.089 2.026 3.52 1.538M10.187 8.12c.626-.178.689-1.897.139-3.84S8.822.905 8.196 1.083c-.627.177-.69 1.896-.14 3.84.55 1.942 1.504 3.374 2.13 3.196M14.062 4.982c.588-1.931.56-3.651-.063-3.84s-1.605 1.222-2.193 3.154-.56 3.651.063 3.841 1.605-1.223 2.193-3.155M16.83 7.593c1.54-1.308 2.445-2.77 2.023-3.266-.421-.497-2.01.16-3.55 1.468-1.539 1.308-2.445 2.77-2.023 3.266.422.497 2.011-.16 3.55-1.468M17.746 11.287c2.001-.268 3.554-1.008 3.468-1.654-.087-.645-1.78-.951-3.78-.684-2.002.268-3.555 1.009-3.469 1.654.087.646 1.78.952 3.78.684M20.328 15.374c.276-.59-.982-1.762-2.81-2.62-1.83-.856-3.536-1.073-3.812-.483s.982 1.762 2.81 2.62c1.829.856 3.535 1.073 3.812.483M16.482 19.725c.551-.347.127-2.014-.948-3.723s-2.393-2.814-2.945-2.468c-.55.347-.127 2.014.948 3.723s2.394 2.815 2.945 2.468"/></svg>
